packages/core/src/svgs/tokens/branded/FOREX.svg

<svg width="24" height="24" viewBox="0 0 24 24" fill="none" xmlns="http://www.w3.org/2000/svg">
<path d="M9.7197 2.50263L4.35999 4.95137C4.21981 5.01427 4.10054 5.11592 4.01623 5.24436C3.93191 5.37279 3.88607 5.52264 3.8841 5.67627C3.88213 5.82989 3.92411 5.98088 4.00511 6.11144C4.08611 6.24199 4.20273 6.34666 4.34126 6.41313L9.61358 8.94933C10.3743 9.31415 11.2076 9.50262 12.0513 9.50043C12.8949 9.49824 13.7272 9.30555 14.486 8.93684L19.6647 6.40688C20.2831 6.10704 20.2706 5.23874 19.6459 4.95137L14.3862 2.51513C13.6549 2.17786 12.8595 2.00218 12.0543 2.00002C11.249 1.99786 10.4527 2.16929 9.7197 2.50263Z" fill="#2A313E"/>
<path d="M2.00513 15.9583V8.59957C2.00513 7.70627 2.94215 7.11283 3.76672 7.48764L9.19514 9.97392C9.84406 10.2694 10.3943 10.7448 10.7809 11.3439C11.1673 11.943 11.3737 12.6404 11.3753 13.3533V20.7496C11.3753 21.6492 10.4321 22.2426 9.6075 21.8616L4.17276 19.3254C3.52724 19.0284 2.98014 18.5531 2.59605 17.9554C2.21194 17.3578 2.00691 16.6625 2.00513 15.9521V15.9583Z" fill="#2A313E"/>
<path d="M21.9948 8.62449C21.9948 7.72496 21.0577 7.13151 20.2331 7.50632L14.8046 9.99878C14.1567 10.2938 13.6071 10.7684 13.2207 11.3663C12.8343 11.964 12.6274 12.6602 12.6245 13.3721V20.7683C12.6245 21.6678 13.5677 22.2676 14.3923 21.8802L19.827 19.3502C20.4726 19.0535 21.0196 18.5781 21.4039 17.9804C21.7879 17.3826 21.9929 16.6875 21.9948 15.9769V8.62449Z" fill="#2A313E"/>
<path d="M15.2739 7.45623L8.25244 4.12667L8.75219 3.8768L15.7487 7.20635L15.2739 7.45623ZM12.1879 7.62488L11.9381 7.20635C12.7189 7.18136 13.6123 7.18136 14.3119 6.80031C14.618 6.6254 14.8116 6.47547 14.9241 6.3318C15.1489 6.03195 14.9553 5.76958 14.6555 5.64465C14.258 5.50921 13.8375 5.454 13.4186 5.48223C13.0187 5.49472 12.6252 5.55094 12.3691 5.6384C11.5383 5.92576 10.6949 6.23185 9.80796 6.18187C9.32696 6.1444 8.6335 5.96949 8.37113 5.51347C8.21497 5.23236 8.34615 4.96999 8.55853 4.75135C9.35815 3.95176 10.5513 3.8768 11.6069 3.8768L11.6506 4.20788C11.2384 4.20788 10.2764 4.18915 9.72663 4.49524C9.4768 4.63891 8.87088 4.97624 9.05828 5.36354C9.22697 5.70087 9.77036 5.80082 10.1078 5.80082C10.6372 5.76553 11.1578 5.64749 11.6506 5.45099C12.113 5.29483 12.7001 5.16365 13.2999 5.11367C13.9558 5.0637 14.6241 5.11367 15.1302 5.33856C15.5549 5.52596 15.911 5.95074 15.6299 6.41926C15.0053 7.39999 13.1936 7.60614 12.1879 7.62488Z" fill="#A9E3B0"/>
<path d="M8.51501 18.6568C8.26514 18.813 8.01526 18.8692 7.65295 18.8692C6.57225 18.8692 5.4166 17.8948 4.85438 16.5329C4.63713 15.9837 4.50647 15.4042 4.46709 14.815L3.87988 14.5652L4.17974 13.9717L4.4421 14.0842C4.44834 13.7844 4.47332 13.4783 4.50456 13.1783L3.87988 12.9098L4.17974 12.3225L4.61076 12.51L4.62325 12.4225C4.8294 11.3855 5.27917 10.7484 6.24743 10.7484C7.01578 10.7484 7.8466 11.3105 8.49003 12.1602C8.42755 12.3788 8.32761 12.6786 8.14645 12.9722C7.75915 12.1602 7.17195 11.598 6.4973 11.598C5.77266 11.598 5.4166 12.0414 5.24169 12.7786L7.82162 13.8842L7.52177 14.4777L5.123 13.4469C5.08551 13.7406 5.06053 14.0467 5.06053 14.3528L7.27815 15.3086L6.97829 15.8957L5.11051 15.0899C5.16047 15.4647 5.24793 15.8396 5.3916 16.1768C5.82888 17.2575 6.70343 18.0446 7.55926 18.0446C7.81537 18.0446 8.01526 17.9946 8.16519 17.9071C8.2589 18.0634 8.38383 18.3195 8.51501 18.6568Z" fill="#A9E3B0"/>
<path d="M17.6222 15.0211L19.2338 10.5359L18.5216 10.7795L17.2535 14.384L15.8668 12.0102L15.1797 12.41L16.9974 15.4146V15.727L15.7481 16.3455V16.9702L16.9974 16.3455V17.1451L15.7481 17.7697V18.3944L16.9974 17.7697V18.8691L17.6222 18.5318V17.4636L18.8715 16.839V16.2143L17.6222 16.8327V16.0394L18.8715 15.4146V14.7901L17.6222 15.4146V15.0211Z" fill="#A9E3B0"/>
</svg>

<svg xmlns="http://www.w3.org/2000/svg" width="24" height="24" fill="none" viewBox="0 0 24 24">
    <path fill="#2A313E" d="M9.72 2.503 4.36 4.95a.806.806 0 0 0-.019 1.462L9.614 8.95a5.6 5.6 0 0 0 4.872-.012l5.179-2.53a.801.801 0 0 0-.02-1.456l-5.259-2.436a5.6 5.6 0 0 0-4.666-.012M2.005 15.958V8.6c0-.894.937-1.487 1.762-1.112l5.428 2.486a3.72 3.72 0 0 1 2.18 3.38v7.396c0 .9-.943 1.493-1.767 1.112l-5.435-2.537a3.73 3.73 0 0 1-2.168-3.373zm19.99-7.334c0-.899-.937-1.492-1.762-1.118L14.805 10a3.72 3.72 0 0 0-2.18 3.373v7.396c0 .9.943 1.5 1.767 1.112l5.435-2.53a3.72 3.72 0 0 0 2.168-3.373z"/>
    <path fill="#A9E3B0" d="m15.274 7.456-7.022-3.33.5-.25 6.997 3.33zm-3.086.169-.25-.419c.78-.025 1.674-.025 2.374-.406.306-.175.5-.325.612-.468.225-.3.031-.562-.268-.687a3.2 3.2 0 0 0-1.237-.163c-.4.013-.794.069-1.05.156-.83.288-1.674.594-2.561.544-.481-.038-1.174-.213-1.437-.669-.156-.28-.025-.543.188-.762.8-.8 1.992-.874 3.048-.874l.044.33c-.413 0-1.375-.018-1.924.288-.25.144-.856.481-.669.869.169.337.712.437 1.05.437a5 5 0 0 0 1.543-.35 7.2 7.2 0 0 1 1.649-.337c.656-.05 1.324 0 1.83.225.425.187.781.612.5 1.08-.625.981-2.436 1.187-3.442 1.206M8.515 18.657c-.25.156-.5.212-.862.212-1.08 0-2.236-.974-2.799-2.336a5.7 5.7 0 0 1-.387-1.718l-.587-.25.3-.593.262.112c.006-.3.031-.606.063-.906l-.625-.268.3-.588.43.188.013-.088c.206-1.037.656-1.674 1.624-1.674.769 0 1.6.563 2.243 1.412a3.2 3.2 0 0 1-.344.812c-.387-.812-.974-1.374-1.649-1.374-.724 0-1.08.443-1.255 1.18l2.58 1.106-.3.594-2.399-1.031c-.037.294-.062.6-.062.906l2.217.956-.3.587-1.867-.806c.05.375.137.75.28 1.087.438 1.08 1.312 1.868 2.168 1.868.256 0 .456-.05.606-.138.094.156.219.413.35.75m9.107-3.636 1.612-4.485-.712.244-1.268 3.604-1.387-2.374-.687.4 1.817 3.005v.312l-1.249.619v.624l1.25-.624v.8l-1.25.624v.624l1.25-.624v1.1l.624-.338v-1.068l1.25-.625v-.625l-1.25.619v-.794l1.25-.624v-.625l-1.25.625z"/>
</svg>
